X:3501
T:Coup de C¦ur - schottisch/schottische/scottish
C:Matthias Loibner/Simon Wascher
Z:abc transcription Simon Wascher
N:please mail errors to: simon.wascher@chello.at
M:2/4
L:1/16
K:D
=f2e ^G- G2A2|d2c^F-F4|EFGB Acde|d2c2 B2A2|
=f2e ^G- G2A2|d2cFF4|EFGB Acde|d2c2d4:|
|:B3G EFGB|A2AG Acde|B3G EFGB|A2AGA3_B|
B3G EFGB|A2AG Acde|1=f2e2d2=c2|=F2^FG- G^GA_B:|2=f2e2d2=c2|
=F2^F=G-G4|]"letzter Schluss"=fAeGd=F-F2|^F8|]


